www/images/open@2x.svg

<svg fill="none" height="54" viewBox="0 0 54 54" width="54" xmlns="http://www.w3.org/2000/svg"><path d="m38.259 19.98c-.7938-.162-2.2626-.1404-3.132 1.7928l-.54 1.1502 1.053-6.8796c.0377-.3598.0005-.7235-.1092-1.0683-.1096-.3448-.2894-.6631-.528-.9351-.2227-.2532-.4957-.4574-.8015-.5996-.3058-.1423-.6379-.2194-.9751-.2266-.6501-.0081-1.2821.2141-1.7842.6272-.502.4131-.8417.9905-.959 1.63l-.8748 4.0986v-6.4314c0-.6917-.2747-1.3551-.7639-1.8443-.4891-.4891-1.1525-.7639-1.8443-.7639-.6917 0-1.3551.2748-1.8442.7639-.4892.4892-.764 1.1526-.764 1.8443v8.937l-1.4796-4.6224c-.8046-2.5596-2.241-2.7756-3.3048-2.5002-1.755.4536-2.025 2.16-1.7118 3.483l2.5164 9.7686-2.2302-1.5282c-1.2528-.9774-2.5866-1.0368-3.564-.1566-.4813.439-.7785 1.044-.8316 1.6933s.1418 1.2946.5454 1.8059l7.4952 8.9748v3.6666c0 .2148.0854.4209.2373.5728s.3579.2372.5727.2372h10.7136c.2149 0 .4209-.0853.5728-.2372s.2372-.358.2372-.5728v-3.699l2.052-2.8944c.0524-.0741.0925-.1562.1188-.243l3.78-12.7548c.1026-.3174.1364-.653.0991-.9845-.0372-.3314-.1446-.6512-.3151-.9379-.1748-.299-.411-.5575-.6931-.7585-.282-.2011-.6034-.3401-.9431-.4079zm.3024 2.6028-3.7476 12.636-2.1276 3.0132c-.0964.1375-.1474.3018-.1458.4698v3.1482h-9.0936v-3.1482c.0069-.1973-.0606-.39-.189-.54l-7.668-9.18c-.1459-.1883-.2152-.4248-.1942-.6621s.1309-.458.3076-.6177c.135-.1188.54-.4968 1.5228.2592l4.05 2.8188c.136.093.297.1423.4617.1414s.3252-.0519.4601-.1464c.135-.0944.2379-.2278.2951-.3822s.066-.3226.0251-.4822l-3.051-11.8584c-.1134-.4914-.1944-1.3392.54-1.5282.405-.108.8802-.0918 1.3554 1.4148l3.0672 9.6012v.0324c.0104.0262.0231.0515.0378.0756.0105.0245.0232.048.0378.0702l.0378.0594.0594.0648.0432.0486.0702.054.054.0378.081.0432h.0594l.0918.027h.0594.2538.081.0378.0324l.081-.0324.0648-.0378.0648-.0432.0648-.054.0486-.0486.054-.0648.0378-.0648c.0146-.0204.0273-.0421.0378-.0648l.0324-.0756s0-.0486 0-.0756c.003-.0251.003-.0505 0-.0756.003-.0287.003-.0577 0-.0864 0 0 0 0 0-.0324v-14.1588c0-.2621.1042-.5134.2895-.6988.1853-.1853.4367-.2894.6987-.2894.2621 0 .5135.1041.6988.2894.1853.1854.2894.4367.2894.6988v14.1264.0486.108.0702c.0066.0278.0156.0549.027.081.0086.0226.0195.0443.0324.0648l.0378.0756.0432.0486c.0169.0258.0368.0493.0594.0702.0131.0157.0275.0302.0432.0432l.0756.0594.0648.0378.0702.0378.2376.0702c.0521.0056.1046.0056.1566 0h.135l.135-.0378.108-.0594.0756-.0594c.0184-.0095.0349-.0223.0486-.0378.0191-.0173.0355-.0373.0486-.0594.0208-.0171.039-.0371.054-.0594.0146-.0204.0273-.0421.0378-.0648 0 0 0-.0486.0378-.0756.0151-.0388.0277-.0785.0378-.1188.0024-.0107.0024-.0217 0-.0324l2.4732-11.5992c.0311-.2671.1574-.514.3558-.6955.1983-.1815.4555-.2854.7242-.2927h.0432c.1147-.0002.2281.0243.3324.0719.1044.0475.1973.1169.2724.2035.1904.1775.3063.4207.324.6804l-1.89 12.7332v.0432.0972.0702c-.0026.0269-.0026.0541 0 .081-.0023.0251-.0023.0505 0 .0756.0057.0245.0148.0482.027.0702l.0324.0702c.0102.0229.0229.0447.0378.0648.0149.0226.0312.0442.0486.0648l.054.0594.0594.0486.0594.0486.0756.0432h.0432.0756.081.027.189c.0885-.0026.1759-.019.2592-.0486.0812-.0292.1562-.0732.2214-.1296h.027c.0621-.0562.1149-.1218.1566-.1944v-.0378c.0018-.0162.0018-.0325 0-.0486l2.9214-6.5772c.4158-.9126.8856-.9558 1.3392-.864.1114.0256.2165.0732.3092.14.0928.0667.1712.1513.2308.2488.0811.0945.1378.2074.1651.3288s.0244.2477-.0085.3678z" fill="#000"/><path d="m38.5614 22.5828-3.7476 12.636-2.1276 3.0132c-.0964.1375-.1474.3018-.1458.4698v3.1482h-9.0936v-3.1482c.0069-.1973-.0606-.39-.189-.54l-7.668-9.18c-.1459-.1883-.2152-.4248-.1942-.6621s.1309-.458.3076-.6177c.135-.1188.54-.4968 1.5228.2592l4.05 2.8188c.136.093.297.1423.4617.1414s.3252-.0519.4601-.1464c.135-.0944.2379-.2278.2951-.3822s.066-.3226.0251-.4822l-3.051-11.8584c-.1134-.4914-.1944-1.3392.54-1.5282.405-.108.8802-.0918 1.3554 1.4148l3.0672 9.6012v.0324c.0104.0262.0231.0515.0378.0756.0105.0245.0232.048.0378.0702l.0378.0594.0594.0648.0432.0486.0702.054.054.0378.081.0432h.0594l.0918.027h.0594.2538.081.0378.0324l.081-.0324.0648-.0378.0648-.0432.0648-.054.0486-.0486.054-.0648.0378-.0648c.0146-.0204.0273-.0421.0378-.0648l.0324-.0756s0-.0486 0-.0756c.003-.0251.003-.0505 0-.0756.003-.0287.003-.0577 0-.0864 0 0 0 0 0-.0324v-14.1588c0-.2621.1042-.5134.2895-.6988.1853-.1853.4367-.2894.6987-.2894.2621 0 .5135.1041.6988.2894.1853.1854.2894.4367.2894.6988v14.1264.0486.108.0702c.0066.0278.0156.0549.027.081.0086.0226.0195.0443.0324.0648l.0378.0756.0432.0486c.0169.0258.0368.0493.0594.0702.0131.0157.0275.0302.0432.0432l.0756.0594.0648.0378.0702.0378.2376.0702c.0521.0056.1046.0056.1566 0h.135l.135-.0378.108-.0594.0756-.0594c.0184-.0095.0349-.0223.0486-.0378.0191-.0173.0355-.0373.0486-.0594.0208-.0171.039-.0371.054-.0594.0146-.0204.0273-.0421.0378-.0648 0 0 0-.0486.0378-.0756.0151-.0388.0277-.0785.0378-.1188.0024-.0107.0024-.0217 0-.0324l2.4732-11.5992c.0311-.2671.1574-.514.3558-.6955.1983-.1815.4555-.2854.7242-.2927h.0432c.1147-.0002.2281.0243.3324.0719.1044.0475.1973.1169.2724.2035.1904.1775.3063.4207.324.6804l-1.89 12.7332v.0432.0972.0702c-.0026.0269-.0026.0541 0 .081-.0023.0251-.0023.0505 0 .0756.0057.0245.0148.0482.027.0702l.0324.0702c.0102.0229.0229.0447.0378.0648.0149.0226.0312.0442.0486.0648l.054.0594.0594.0486.0594.0486.0756.0432h.0432.0756.081.027.189c.0885-.0026.1759-.019.2592-.0486.0812-.0292.1562-.0732.2214-.1296h.027c.0621-.0562.1149-.1218.1566-.1944v-.0378c.0018-.0162.0018-.0324 0-.0486l2.9214-6.5772c.4158-.9126.8856-.9558 1.3392-.864.1114.0256.2165.0732.3092.14.0928.0667.1712.1513.2308.2488.0811.0945.1378.2074.1651.3288s.0244.2477-.0085.3678z" fill="#fff"/></svg>

<svg width="54" height="54" viewBox="0 0 54 54" fill="none" xmlns="http://www.w3.org/2000/svg">
<path d="M38.259 19.98C37.4652 19.818 35.9964 19.8396 35.127 21.7728L34.587 22.923L35.64 16.0434C35.6777 15.6836 35.6405 15.3199 35.5308 14.9751C35.4212 14.6303 35.2414 14.312 35.0028 14.04C34.7801 13.7868 34.5071 13.5826 34.2013 13.4404C33.8955 13.2981 33.5634 13.221 33.2262 13.2138C32.5761 13.2057 31.9441 13.4279 31.442 13.841C30.94 14.2541 30.6003 14.8315 30.483 15.471L29.6082 19.5696V13.1382C29.6082 12.4465 29.3335 11.7831 28.8443 11.2939C28.3552 10.8048 27.6918 10.53 27 10.53C26.3083 10.53 25.6449 10.8048 25.1558 11.2939C24.6666 11.7831 24.3918 12.4465 24.3918 13.1382V22.0752L22.9122 17.4528C22.1076 14.8932 20.6712 14.6772 19.6074 14.9526C17.8524 15.4062 17.5824 17.1126 17.8956 18.4356L20.412 28.2042L18.1818 26.676C16.929 25.6986 15.5952 25.6392 14.6178 26.5194C14.1365 26.9584 13.8393 27.5634 13.7862 28.2127C13.7331 28.862 13.928 29.5073 14.3316 30.0186L21.8268 38.9934V42.66C21.8268 42.8748 21.9122 43.0809 22.0641 43.2328C22.216 43.3847 22.422 43.47 22.6368 43.47H33.3504C33.5653 43.47 33.7713 43.3847 33.9232 43.2328C34.0751 43.0809 34.1604 42.8748 34.1604 42.66V38.961L36.2124 36.0666C36.2648 35.9925 36.3049 35.9104 36.3312 35.8236L40.1112 23.0688C40.2138 22.7514 40.2476 22.4158 40.2103 22.0843C40.1731 21.7529 40.0657 21.4331 39.8952 21.1464C39.7204 20.8474 39.4842 20.5889 39.2021 20.3879C38.9201 20.1868 38.5987 20.0478 38.259 19.98ZM38.5614 22.5828L34.8138 35.2188L32.6862 38.232C32.5898 38.3695 32.5388 38.5338 32.5404 38.7018V41.85H23.4468V38.7018C23.4537 38.5045 23.3862 38.3118 23.2578 38.1618L15.5898 28.9818C15.4439 28.7935 15.3746 28.557 15.3956 28.3197C15.4166 28.0824 15.5265 27.8617 15.7032 27.702C15.8382 27.5832 16.2432 27.2052 17.226 27.9612L21.276 30.78C21.412 30.873 21.573 30.9223 21.7377 30.9214C21.9024 30.9205 22.0629 30.8695 22.1978 30.775C22.3328 30.6806 22.4357 30.5472 22.4929 30.3928C22.5501 30.2384 22.5589 30.0702 22.518 29.9106L19.467 18.0522C19.3536 17.5608 19.2726 16.713 20.007 16.524C20.412 16.416 20.8872 16.4322 21.3624 17.9388L24.4296 27.54C24.4296 27.54 24.4296 27.54 24.4296 27.5724C24.44 27.5986 24.4527 27.6239 24.4674 27.648C24.4779 27.6725 24.4906 27.696 24.5052 27.7182L24.543 27.7776L24.6024 27.8424L24.6456 27.891L24.7158 27.945L24.7698 27.9828L24.8508 28.026H24.9102L25.002 28.053H25.0614H25.3152H25.3962H25.434H25.4664L25.5474 28.0206L25.6122 27.9828L25.677 27.9396L25.7418 27.8856L25.7904 27.837L25.8444 27.7722L25.8822 27.7074C25.8968 27.687 25.9095 27.6653 25.92 27.6426L25.9524 27.567C25.9524 27.567 25.9524 27.5184 25.9524 27.4914C25.9554 27.4663 25.9554 27.4409 25.9524 27.4158C25.9554 27.3871 25.9554 27.3581 25.9524 27.3294C25.9524 27.3294 25.9524 27.3294 25.9524 27.297V13.1382C25.9524 12.8761 26.0566 12.6248 26.2419 12.4394C26.4272 12.2541 26.6786 12.15 26.9406 12.15C27.2027 12.15 27.4541 12.2541 27.6394 12.4394C27.8247 12.6248 27.9288 12.8761 27.9288 13.1382V27.2646C27.9288 27.2646 27.9288 27.297 27.9288 27.3132C27.9288 27.3294 27.9288 27.3888 27.9288 27.4212C27.9288 27.4536 27.9288 27.4698 27.9288 27.4914C27.9354 27.5192 27.9444 27.5463 27.9558 27.5724C27.9644 27.595 27.9753 27.6167 27.9882 27.6372L28.026 27.7128L28.0692 27.7614C28.0861 27.7872 28.106 27.8107 28.1286 27.8316C28.1417 27.8473 28.1561 27.8618 28.1718 27.8748L28.2474 27.9342L28.3122 27.972L28.3824 28.0098L28.62 28.08C28.6721 28.0856 28.7246 28.0856 28.7766 28.08H28.9116L29.0466 28.0422L29.1546 27.9828L29.2302 27.9234C29.2486 27.9139 29.2651 27.9011 29.2788 27.8856C29.2979 27.8683 29.3143 27.8483 29.3274 27.8262C29.3482 27.8091 29.3664 27.7891 29.3814 27.7668C29.396 27.7464 29.4087 27.7247 29.4192 27.702C29.4192 27.702 29.4192 27.6534 29.457 27.6264C29.4721 27.5876 29.4847 27.5479 29.4948 27.5076C29.4972 27.4969 29.4972 27.4859 29.4948 27.4752L31.968 15.876C31.9991 15.6089 32.1254 15.362 32.3238 15.1805C32.5221 14.999 32.7793 14.8951 33.048 14.8878H33.0912C33.2059 14.8876 33.3193 14.9121 33.4236 14.9597C33.528 15.0072 33.6209 15.0766 33.696 15.1632C33.8864 15.3407 34.0023 15.5839 34.02 15.8436L32.13 28.5768C32.13 28.5768 32.13 28.6092 32.13 28.62C32.13 28.6308 32.13 28.6848 32.13 28.7172C32.13 28.7496 32.13 28.7658 32.13 28.7874C32.1274 28.8143 32.1274 28.8415 32.13 28.8684C32.1277 28.8935 32.1277 28.9189 32.13 28.944C32.1357 28.9685 32.1448 28.9922 32.157 29.0142L32.1894 29.0844C32.1996 29.1073 32.2123 29.1291 32.2272 29.1492C32.2421 29.1718 32.2584 29.1934 32.2758 29.214L32.3298 29.2734L32.3892 29.322L32.4486 29.3706L32.5242 29.4138H32.5674H32.643H32.724H32.751H32.94C33.0285 29.4112 33.1159 29.3948 33.1992 29.3652C33.2804 29.336 33.3554 29.292 33.4206 29.2356H33.4476C33.5097 29.1794 33.5625 29.1138 33.6042 29.0412V29.0034C33.606 28.9872 33.606 28.9709 33.6042 28.9548L36.5256 22.3776C36.9414 21.465 37.4112 21.4218 37.8648 21.5136C37.9762 21.5392 38.0813 21.5868 38.174 21.6536C38.2668 21.7203 38.3452 21.8049 38.4048 21.9024C38.4859 21.9969 38.5426 22.1098 38.5699 22.2312C38.5972 22.3526 38.5943 22.4789 38.5614 22.599V22.5828Z" fill="black"/>
<path d="M38.5614 22.5828L34.8138 35.2188L32.6862 38.232C32.5898 38.3695 32.5388 38.5338 32.5404 38.7018V41.85H23.4468V38.7018C23.4537 38.5045 23.3862 38.3118 23.2578 38.1618L15.5898 28.9818C15.4439 28.7935 15.3746 28.557 15.3956 28.3197C15.4166 28.0824 15.5265 27.8617 15.7032 27.702C15.8382 27.5832 16.2432 27.2052 17.226 27.9612L21.276 30.78C21.412 30.873 21.573 30.9223 21.7377 30.9214C21.9024 30.9205 22.0629 30.8695 22.1978 30.775C22.3328 30.6806 22.4357 30.5472 22.4929 30.3928C22.5501 30.2384 22.5589 30.0702 22.518 29.9106L19.467 18.0522C19.3536 17.5608 19.2726 16.713 20.007 16.524C20.412 16.416 20.8872 16.4322 21.3624 17.9388L24.4296 27.54C24.4296 27.54 24.4296 27.54 24.4296 27.5724C24.44 27.5986 24.4527 27.6239 24.4674 27.648C24.4779 27.6725 24.4906 27.696 24.5052 27.7182L24.543 27.7776L24.6024 27.8424L24.6456 27.891L24.7158 27.945L24.7698 27.9828L24.8508 28.026H24.9102L25.002 28.053H25.0614H25.3152H25.3962H25.434H25.4664L25.5474 28.0206L25.6122 27.9828L25.677 27.9396L25.7418 27.8856L25.7904 27.837L25.8444 27.7722L25.8822 27.7074C25.8968 27.687 25.9095 27.6653 25.92 27.6426L25.9524 27.567C25.9524 27.567 25.9524 27.5184 25.9524 27.4914C25.9554 27.4663 25.9554 27.4409 25.9524 27.4158C25.9554 27.3871 25.9554 27.3581 25.9524 27.3294C25.9524 27.3294 25.9524 27.3294 25.9524 27.297V13.1382C25.9524 12.8761 26.0566 12.6248 26.2419 12.4394C26.4272 12.2541 26.6786 12.15 26.9406 12.15C27.2027 12.15 27.4541 12.2541 27.6394 12.4394C27.8247 12.6248 27.9288 12.8761 27.9288 13.1382V27.2646C27.9288 27.2646 27.9288 27.297 27.9288 27.3132C27.9288 27.3294 27.9288 27.3888 27.9288 27.4212C27.9288 27.4536 27.9288 27.4698 27.9288 27.4914C27.9354 27.5192 27.9444 27.5463 27.9558 27.5724C27.9644 27.595 27.9753 27.6167 27.9882 27.6372L28.026 27.7128L28.0692 27.7614C28.0861 27.7872 28.106 27.8107 28.1286 27.8316C28.1417 27.8473 28.1561 27.8618 28.1718 27.8748L28.2474 27.9342L28.3122 27.972L28.3824 28.0098L28.62 28.08C28.6721 28.0856 28.7246 28.0856 28.7766 28.08H28.9116L29.0466 28.0422L29.1546 27.9828L29.2302 27.9234C29.2486 27.9139 29.2651 27.9011 29.2788 27.8856C29.2979 27.8683 29.3143 27.8483 29.3274 27.8262C29.3482 27.8091 29.3664 27.7891 29.3814 27.7668C29.396 27.7464 29.4087 27.7247 29.4192 27.702C29.4192 27.702 29.4192 27.6534 29.457 27.6264C29.4721 27.5876 29.4847 27.5479 29.4948 27.5076C29.4972 27.4969 29.4972 27.4859 29.4948 27.4752L31.968 15.876C31.9991 15.6089 32.1254 15.362 32.3238 15.1805C32.5221 14.999 32.7793 14.8951 33.048 14.8878H33.0912C33.2059 14.8876 33.3193 14.9121 33.4236 14.9597C33.528 15.0072 33.6209 15.0766 33.696 15.1632C33.8864 15.3407 34.0023 15.5839 34.02 15.8436L32.13 28.5768C32.13 28.5768 32.13 28.6092 32.13 28.62C32.13 28.6308 32.13 28.6848 32.13 28.7172C32.13 28.7496 32.13 28.7658 32.13 28.7874C32.1274 28.8143 32.1274 28.8415 32.13 28.8684C32.1277 28.8935 32.1277 28.9189 32.13 28.944C32.1357 28.9685 32.1448 28.9922 32.157 29.0142L32.1894 29.0844C32.1996 29.1073 32.2123 29.1291 32.2272 29.1492C32.2421 29.1718 32.2584 29.1934 32.2758 29.214L32.3298 29.2734L32.3892 29.322L32.4486 29.3706L32.5242 29.4138H32.5674H32.643H32.724H32.751H32.94C33.0285 29.4112 33.1159 29.3948 33.1992 29.3652C33.2804 29.336 33.3554 29.292 33.4206 29.2356H33.4476C33.5097 29.1794 33.5625 29.1138 33.6042 29.0412V29.0034C33.606 28.9872 33.606 28.971 33.6042 28.9548L36.5256 22.3776C36.9414 21.465 37.4112 21.4218 37.8648 21.5136C37.9762 21.5392 38.0813 21.5868 38.174 21.6536C38.2668 21.7203 38.3452 21.8049 38.4048 21.9024C38.4859 21.9969 38.5426 22.1098 38.5699 22.2312C38.5972 22.3526 38.5943 22.4789 38.5614 22.599V22.5828Z" fill="white"/>
</svg>
